images/LOGOS_CLIENTES/GALENO.svg

<svg width="115" height="21" viewBox="0 0 115 21" fill="none" xmlns="http://www.w3.org/2000/svg">
<path d="M2.00781 13.3701C2.19709 13.3971 2.39988 13.4106 2.58916 13.4106C5.06327 13.4106 7.87538 11.261 9.1868 9.19248C10.4712 7.01581 10.7821 4.43353 10.0926 1.71606C9.98446 1.06712 9.56535 0.783203 9.22736 0.783203C9.10568 0.783203 8.99752 0.823762 8.92992 0.891361C8.70009 1.20232 8.59193 1.39159 8.44321 1.67551C8.18633 2.06758 8.19986 2.48669 8.47025 3.00044C8.92992 3.79811 9.72759 7.13748 8.65953 8.86801C7.48331 10.8013 6.02318 11.7477 4.18449 11.7477C3.76538 11.7477 3.38682 11.7072 3.04883 11.6531C3.00827 11.6396 2.95419 11.6396 2.88659 11.626C2.77843 11.599 2.64324 11.5855 2.52156 11.5855C2.22412 11.5855 1.99429 11.7072 1.83205 11.9776C1.81853 12.0046 1.79149 12.0316 1.76445 12.0722C1.64278 12.2615 1.48054 12.5048 1.4535 12.7211C1.42646 12.9104 1.4535 13.0727 1.53462 13.1673C1.62926 13.3025 1.79149 13.3701 2.00781 13.3701Z" fill="black"/>
<path d="M8.95488 10.2466L8.9008 10.2061C6.26445 13.2074 3.14139 14.3296 1.80293 14.3296H1.69478C1.66774 14.3161 1.6407 14.3161 1.62718 14.3161C1.08639 14.3161 0.734874 14.5053 0.505039 14.8839C0.329282 15.1272 0.248163 15.303 0.112966 15.5734L0.0588857 15.6816C-0.0222327 15.8708 -0.0222327 16.0466 0.0588857 16.1818C0.167044 16.344 0.39688 16.4387 0.694314 16.4387C0.870071 16.4387 1.05935 16.4116 1.24862 16.344C3.79034 15.6275 6.29149 14.627 8.95488 10.2466Z" fill="black"/>
<path d="M6.79077 5.55538C8.00755 7.01551 7.92643 8.97587 7.83179 9.7465L7.80475 9.90874L7.89939 9.76002C9.33249 7.2859 8.67002 5.20386 7.84531 3.89245C7.64252 3.51389 7.3586 3.4463 7.03413 3.67613C6.85837 3.79781 6.68262 4.08173 6.57446 4.271C6.54742 4.31156 6.5339 4.35212 6.50686 4.37916C6.18239 4.90643 6.5339 5.27146 6.7367 5.47426C6.75022 5.5013 6.77725 5.52834 6.79077 5.55538Z" fill="black"/>
<path d="M8.7278 14.5596C6.21313 14.5866 3.8607 15.6817 1.92737 17.6962C1.49474 18.0747 1.42714 18.4938 1.50826 18.7777C1.56234 18.967 1.68402 19.0887 1.81921 19.1157C2.17073 19.1563 2.41408 19.1428 2.73856 19.1157H2.75208C3.21175 19.1157 3.56326 18.8859 3.84718 18.3992C4.27981 17.588 6.6728 15.1544 8.68725 15.1544H8.76836C12.5539 15.1544 13.5544 17.4122 14.0275 18.4938C14.0546 18.5344 14.0681 18.5885 14.0951 18.6425C14.2033 18.94 14.3655 19.3726 14.9469 19.3726C14.9739 19.3726 15.0145 19.3726 15.055 19.3726H15.2308C15.393 19.3726 15.6094 19.3591 15.7716 19.305C15.9474 19.2374 16.0555 19.1292 16.1096 18.9941C16.1501 18.8589 16.1366 18.6966 16.0285 18.4938C14.9875 16.1008 11.4318 14.5866 8.7278 14.5596Z" fill="black"/>
<path d="M18.9198 17.6013C16.9865 15.8167 14.8369 14.1943 9.79401 14.1943H9.71289V14.2619C13.9716 15.019 16.4457 17.2904 16.9865 18.2773C17.2569 18.7775 17.6084 19.0074 18.0816 19.0074C18.1763 19.0209 18.2438 19.0209 18.325 19.0209C18.4872 19.0209 18.6224 19.0074 18.8117 18.9938C18.8658 18.9803 18.9198 18.9803 18.9874 18.9803C19.2173 18.9533 19.366 18.8316 19.4201 18.6559C19.5147 18.3584 19.3254 17.9528 18.9198 17.6013Z" fill="black"/>
<path d="M7.81974 15.7223C6.56241 16.209 5.58898 17.1419 4.92652 18.4803C4.81836 18.6696 4.79132 18.8454 4.8454 18.9806C4.88596 19.1158 4.99412 19.2239 5.18339 19.2915C5.34563 19.3591 5.62954 19.3726 5.81882 19.3726H5.95402H6.06218C6.65704 19.3726 6.79224 18.8994 6.85984 18.6155C6.87336 18.575 6.88688 18.5344 6.9004 18.5074C7.49527 16.6957 9.18524 15.7358 9.88826 15.4113L10.0505 15.3438H9.87474C9.10412 15.3708 8.41461 15.4925 7.81974 15.7223Z" fill="black"/>
<path d="M20.9875 15.8711C20.8388 15.5196 20.7306 15.3438 20.5549 15.0599C20.3386 14.6408 19.9735 14.438 19.3922 14.411C18.4729 14.411 15.1876 13.4375 14.2547 11.6529C12.4295 8.273 13.9437 6.31264 14.6738 5.36625C14.7008 5.3257 14.7279 5.29866 14.7684 5.2581C14.9712 5.01474 15.2822 4.66323 15.0118 4.14948C14.9983 4.12244 14.9712 4.08188 14.9577 4.0278C14.8631 3.83852 14.7279 3.58165 14.5656 3.44645C14.2547 3.2031 13.9708 3.25718 13.7409 3.60869C12.1321 5.65017 12.4836 9.53034 13.7409 11.9369C14.9577 14.1406 17.0262 15.7089 19.7167 16.466C19.8924 16.5336 20.0547 16.5606 20.2169 16.5606C20.5143 16.5606 20.7847 16.4389 20.9334 16.2361C20.9875 16.1009 21.0146 15.9793 20.9875 15.8711Z" fill="black"/>
<path d="M13.0114 11.1797C11.6459 7.06971 12.4706 3.78442 13.079 2.83803C13.3764 2.36484 13.417 1.93221 13.1872 1.52662C13.079 1.28326 12.9708 1.12103 12.8356 0.89119C12.8086 0.837111 12.768 0.79655 12.7275 0.728952C12.6193 0.566715 12.4706 0.485596 12.3219 0.485596C11.9974 0.485596 11.6865 0.86415 11.5513 1.4455C10.8888 4.01425 10.4967 6.70468 12.9303 11.2068L13.0114 11.1797Z" fill="black"/>
<path d="M13.7949 10.3821L13.876 10.5308C15.228 12.9238 17.256 13.4375 18.7161 13.4375C18.7972 13.4375 18.8919 13.424 18.973 13.424C19.1893 13.424 19.3515 13.3699 19.4462 13.2618C19.5408 13.1671 19.5814 13.0184 19.5543 12.8292C19.5408 12.6128 19.3786 12.3289 19.2704 12.1261C19.2434 12.0856 19.2299 12.045 19.2163 12.018C19.0676 11.7476 18.8513 11.5989 18.5674 11.5989C18.4187 11.5989 18.2835 11.6259 18.1753 11.6529C18.1348 11.6665 18.0942 11.6665 18.0672 11.68C17.8373 11.7205 17.594 11.7341 17.3506 11.7341C15.7688 11.7341 14.4439 10.8553 13.9436 10.4902L13.7949 10.3821Z" fill="black"/>
<path d="M41.1184 18.183V18.0072L41.1049 12.5317C41.1049 12.1802 41.1049 11.8017 41.2266 11.5313V11.3691H37.6033V11.5448L37.6438 11.5583C38.6578 11.9774 38.6578 13.1537 38.6578 14.1812V17.5611C37.6979 17.845 36.6163 18.0072 35.5212 18.0072C31.8844 18.0072 29.0318 15.0735 29.0318 11.342C29.0318 9.51684 29.6537 7.94855 30.8164 6.82641C31.9385 5.74483 33.5203 5.14997 35.2779 5.14997C36.1296 5.14997 38.2117 5.28516 39.3068 6.5425L39.3203 6.56954H39.469V3.73039L39.4285 3.71687C38.1711 3.44648 36.9949 3.31128 35.8052 3.31128C33.0471 3.3248 30.6812 4.09542 28.9642 5.56908C27.2201 7.06977 26.3008 9.19237 26.3008 11.68C26.3008 16.6418 29.9782 19.8324 35.6565 19.8324H35.6835C37.5898 19.8324 39.4825 19.4539 41.1725 19.1159L41.2401 19.1023L41.2131 19.0347C41.1049 18.7914 41.1184 18.4804 41.1184 18.183Z" fill="black"/>
<path d="M56.4366 16.2633C56.396 16.1551 56.3554 16.047 56.3014 15.9253L51.5154 3.68994L47.7974 3.70346V3.8657L47.838 3.87922C48.1354 3.97386 48.3247 4.12257 48.4193 4.32537C48.6221 4.74448 48.3923 5.33935 48.1895 5.90718L44.3364 15.9388C44.2958 16.0605 44.2553 16.1687 44.2147 16.2768C43.7685 17.5071 43.3359 18.6698 42.1462 19.2917L42.1191 19.3053V19.481H46.4455V19.3053L46.4049 19.2917C45.3774 18.8861 45.4856 18.2913 45.9723 16.9123L47.1485 13.5999H52.8403L54.0571 16.9123L54.1652 17.1962C54.706 18.6157 54.7871 18.8321 53.7732 19.2917L53.7461 19.3053V19.4675H58.5592V19.3053L58.5321 19.2917C57.3559 18.6563 56.8962 17.4936 56.4366 16.2633ZM52.1238 11.7072H47.7839L49.9606 5.94774L52.1238 11.7072Z" fill="black"/>
<path d="M70.2269 16.1819C69.0372 17.2229 67.6852 17.7096 66.2115 17.6285L63.1561 17.4257L63.1425 7.1101C63.1425 7.00194 63.1425 6.88027 63.1425 6.75859C63.1155 5.70405 63.102 4.27095 64.116 3.8924L64.1565 3.86536V3.70312H59.668V3.86536L59.7085 3.87888C60.736 4.27095 60.7225 5.73109 60.709 6.79915C60.709 6.9073 60.709 7.00194 60.709 7.1101V16.0737C60.709 16.1548 60.709 16.2494 60.709 16.3441C60.736 17.4257 60.7495 18.8993 59.722 19.2779L59.6815 19.2914V19.4536H69.1859L70.4162 16.1683H70.2539L70.2269 16.1819Z" fill="black"/>
<path d="M81.5944 16.2224C80.6074 17.1283 79.269 17.642 77.9035 17.642C77.7413 17.642 77.5655 17.642 77.4033 17.615L74.5506 17.3311V11.815H76.3352C76.9301 11.815 77.8359 11.815 78.1874 12.4369L78.2009 12.4775H78.3632V9.84113H78.228H78.2009C77.9441 9.97632 77.579 9.97632 77.214 9.97632H74.5506L74.5371 5.66352C75.2671 5.52833 76.0648 5.50129 76.8084 5.50129C77.8089 5.50129 78.7688 5.56889 79.4718 6.42063L79.4988 6.44767H79.6475L79.634 3.55444H79.4988L79.4853 3.56796C79.3096 3.6626 79.0797 3.67612 78.8769 3.67612H78.6741C78.593 3.67612 78.5254 3.67612 78.4443 3.67612L71.0625 3.68964V3.85188L71.1031 3.8654C72.1306 4.25747 72.117 5.73112 72.1035 6.78566C72.1035 6.89382 72.1035 6.98846 72.1035 7.0831L72.117 16.0467C72.117 16.1549 72.117 16.2495 72.117 16.3576C72.1306 17.4257 72.1441 18.8723 71.1166 19.2509L71.076 19.2644V19.4401L80.675 19.4266H80.7156L81.7837 16.1819H81.6079L81.5944 16.2224Z" fill="black"/>
<path d="M93.8719 3.82508L93.899 3.8386C95.0617 4.52811 95.0617 5.40689 95.0617 6.7183L95.0752 15.6278L86.7876 4.7985L86.4496 4.31179C86.2873 4.12251 86.2062 4.01435 86.1251 3.75748V3.67636H82.6641V3.8386L82.6911 3.85212C83.8538 4.54163 83.8538 5.47449 83.8538 6.7859L83.8673 16.2903C83.8808 17.5882 83.8808 18.5346 82.6911 19.2511L82.6641 19.2646V19.4404L86.8281 19.4269V19.2511L86.8011 19.2376C85.6384 18.5346 85.6384 17.6152 85.6384 16.3308L85.6249 7.24557L93.3852 17.4395C94.3451 18.7509 95.0617 19.5756 96.7652 20.1705L96.8328 20.1975L96.8192 6.77239C96.8192 5.46097 96.8192 4.51459 97.9819 3.82508L98.009 3.81156V3.66284H93.8584V3.82508H93.8719Z" fill="black"/>
<path d="M107.162 3.2438H107.026C104.863 3.21676 102.822 4.05498 101.308 5.59623C99.7527 7.16453 98.874 9.35472 98.901 11.5855C98.9551 16.2633 102.389 19.8055 106.905 19.8055H106.999C109.149 19.7785 111.136 18.9132 112.637 17.3584C114.165 15.7631 114.99 13.6134 114.962 11.288C114.908 6.75893 111.488 3.2438 107.162 3.2438ZM112.367 11.7748C112.38 13.681 111.785 15.344 110.69 16.4796C109.757 17.4395 108.5 17.9533 107.08 17.9533H107.013C103.646 17.9533 101.524 14.5193 101.497 11.3286C101.456 7.6242 103.633 5.096 106.905 5.06896H106.959C110.42 5.06896 112.326 8.53002 112.367 11.7748Z" fill="black"/>
</svg>

<svg width="115" height="21" fill="none" xmlns="http://www.w3.org/2000/svg"><path d="M2.008 13.37c.19.027.392.04.581.04 2.474 0 5.286-2.149 6.598-4.218 1.284-2.176 1.595-4.758.906-7.476-.109-.649-.528-.933-.866-.933a.42.42 0 0 0-.297.108c-.23.311-.338.5-.487.785-.257.392-.243.81.027 1.324.46.798 1.258 4.137.19 5.868-1.177 1.933-2.637 2.88-4.476 2.88-.419 0-.797-.04-1.135-.095-.04-.013-.095-.013-.162-.027a1.592 1.592 0 0 0-.365-.04.751.751 0 0 0-.69.392c-.013.027-.04.054-.068.094-.121.19-.283.433-.31.65-.028.188 0 .35.08.445.095.136.257.203.474.203Z" fill="#000"/><path d="m8.955 10.247-.054-.04c-2.637 3-5.76 4.123-7.098 4.123h-.108c-.027-.014-.054-.014-.068-.014-.54 0-.892.19-1.122.568-.176.243-.257.419-.392.69l-.054.108c-.081.189-.081.365 0 .5.108.162.338.257.635.257.176 0 .365-.027.555-.095 2.541-.717 5.042-1.717 7.706-6.097ZM6.79 5.555c1.218 1.46 1.136 3.42 1.042 4.191l-.027.163.094-.149c1.433-2.474.771-4.556-.054-5.868-.202-.378-.486-.446-.81-.216-.177.122-.352.406-.46.595-.028.04-.041.081-.068.108-.325.527.027.892.23 1.095.013.027.04.054.054.081ZM8.728 14.56c-2.515.027-4.867 1.122-6.8 3.136-.433.379-.5.798-.42 1.082.054.189.176.31.311.338.352.04.595.027.92 0h.013c.46 0 .811-.23 1.095-.717.433-.811 2.826-3.245 4.84-3.245h.081c3.786 0 4.786 2.258 5.26 3.34.027.04.04.095.067.148.108.298.27.73.852.73h.284c.162 0 .378-.013.54-.067a.555.555 0 0 0 .339-.31c.04-.136.027-.298-.081-.501-1.041-2.393-4.597-3.907-7.301-3.934Z" fill="#000"/><path d="M18.92 17.601c-1.934-1.784-4.083-3.407-9.126-3.407h-.081v.068c4.259.757 6.733 3.028 7.274 4.015.27.5.621.73 1.095.73.094.014.162.014.243.014.162 0 .297-.014.487-.027.054-.014.108-.014.175-.014.23-.027.379-.148.433-.324.095-.298-.095-.703-.5-1.055ZM7.82 15.722c-1.258.487-2.231 1.42-2.893 2.758-.109.19-.136.365-.082.5.041.136.15.244.338.311.163.068.447.082.636.082h.243c.595 0 .73-.474.798-.758.013-.04.027-.08.04-.108.595-1.811 2.285-2.771 2.988-3.096l.162-.067h-.175c-.77.027-1.46.149-2.055.378ZM20.988 15.871a5.067 5.067 0 0 0-.433-.811c-.216-.42-.581-.622-1.163-.649-.92 0-4.204-.973-5.137-2.758-1.825-3.38-.311-5.34.419-6.287.027-.04.054-.067.094-.108.203-.243.514-.595.244-1.109-.014-.027-.04-.067-.054-.121-.095-.19-.23-.446-.392-.582-.311-.243-.595-.189-.825.163-1.609 2.041-1.257 5.921 0 8.328 1.217 2.204 3.285 3.772 5.976 4.529.175.068.338.095.5.095.297 0 .568-.122.716-.325.055-.135.082-.257.055-.365Z" fill="#000"/><path d="M13.011 11.18c-1.365-4.11-.54-7.396.068-8.342.297-.473.338-.906.108-1.311-.108-.244-.216-.406-.351-.636-.027-.054-.068-.094-.109-.162-.108-.162-.256-.243-.405-.243-.325 0-.635.378-.77.96-.663 2.568-1.055 5.259 1.378 9.76l.081-.026ZM13.795 10.382l.081.149c1.352 2.393 3.38 2.906 4.84 2.906.081 0 .176-.013.257-.013.216 0 .379-.054.473-.162.095-.095.135-.244.108-.433-.013-.216-.175-.5-.284-.703-.027-.04-.04-.081-.054-.108-.148-.27-.365-.42-.649-.42-.148 0-.284.028-.392.055-.04.013-.08.013-.108.027-.23.04-.473.054-.716.054-1.582 0-2.907-.879-3.407-1.244l-.15-.108ZM41.118 18.183v-.176l-.013-5.475c0-.352 0-.73.122-1v-.163h-3.624v.176l.04.013c1.015.42 1.015 1.596 1.015 2.623v3.38a11.2 11.2 0 0 1-3.137.446c-3.637 0-6.49-2.934-6.49-6.665 0-1.825.623-3.393 1.785-4.516C31.94 5.745 33.52 5.15 35.278 5.15c.852 0 2.934.135 4.029 1.393l.013.027h.149V3.73l-.04-.013a17.007 17.007 0 0 0-3.624-.406c-2.758.014-5.124.784-6.84 2.258C27.22 7.07 26.3 9.192 26.3 11.68c0 4.962 3.677 8.152 9.356 8.152h.027c1.906 0 3.799-.378 5.489-.716l.067-.014-.027-.067c-.108-.244-.095-.555-.095-.852ZM56.437 16.263a5.94 5.94 0 0 0-.136-.338L51.515 3.69l-3.718.013v.163l.041.013c.297.095.487.244.581.446.203.42-.027 1.014-.23 1.582L44.337 15.94c-.04.122-.08.23-.121.338-.447 1.23-.88 2.393-2.069 3.015l-.027.013v.176h4.327v-.176l-.041-.013c-1.028-.406-.92-1-.433-2.38l1.176-3.312h5.692l1.217 3.312.108.284c.541 1.42.622 1.636-.392 2.096l-.027.013v.163h4.813v-.163l-.027-.013c-1.176-.636-1.636-1.798-2.095-3.029Zm-4.313-4.556h-4.34l2.177-5.76 2.163 5.76ZM70.227 16.182c-1.19 1.04-2.542 1.528-4.016 1.447l-3.055-.203-.014-10.316V6.76c-.027-1.055-.04-2.488.974-2.867l.04-.027v-.162h-4.488v.162l.04.014c1.028.392 1.014 1.852 1.001 2.92v9.545c.027 1.082.04 2.555-.987 2.934l-.04.013v.163h9.504l1.23-3.286h-.162l-.027.014ZM81.594 16.222a5.495 5.495 0 0 1-3.69 1.42c-.163 0-.338 0-.5-.027l-2.853-.284v-5.516h1.784c.595 0 1.5 0 1.852.622l.014.04h.162V9.841h-.162c-.257.135-.622.135-.987.135h-2.663l-.014-4.312c.73-.136 1.528-.163 2.271-.163 1 0 1.96.068 2.664.92l.027.027h.148l-.013-2.894h-.135l-.014.014c-.175.095-.405.108-.608.108H78.444l-7.382.014v.162l.041.013c1.028.392 1.014 1.866 1 2.92v.298l.014 8.964v.31c.014 1.069.027 2.515-1 2.894l-.041.013v.176l9.599-.013h.04l1.069-3.245h-.176l-.014.04ZM93.872 3.825l.027.014c1.163.69 1.163 1.568 1.163 2.88l.013 8.909-8.287-10.83-.338-.486c-.163-.19-.244-.298-.325-.555v-.08h-3.46v.162l.026.013c1.163.69 1.163 1.622 1.163 2.934l.013 9.504c.014 1.298.014 2.245-1.176 2.961l-.027.014v.175l4.164-.013v-.176l-.027-.013c-1.163-.703-1.163-1.623-1.163-2.907l-.013-9.085 7.76 10.193c.96 1.312 1.677 2.137 3.38 2.732l.068.027-.014-13.426c0-1.311 0-2.257 1.163-2.947l.027-.013v-.15h-4.15v.163h.013ZM107.162 3.244h-.136a7.826 7.826 0 0 0-5.718 2.352c-1.555 1.569-2.434 3.759-2.407 5.99.054 4.677 3.488 8.22 8.004 8.22h.094a7.897 7.897 0 0 0 5.638-2.448c1.528-1.595 2.353-3.745 2.325-6.07-.054-4.53-3.474-8.044-7.8-8.044Zm5.205 8.53c.013 1.907-.582 3.57-1.677 4.706-.933.96-2.19 1.473-3.61 1.473h-.067c-3.367 0-5.489-3.434-5.516-6.624-.041-3.705 2.136-6.233 5.408-6.26h.054c3.461 0 5.367 3.461 5.408 6.706Z" fill="#000"/></svg>
